images/50715953.svg

<?xml version="1.0" encoding="UTF-8"?>
<svg xmlns="http://www.w3.org/2000/svg" xmlns:xlink="http://www.w3.org/1999/xlink" width="300pt" height="300pt" viewBox="0 0 300 300" version="1.1">
<defs>
<g>
<symbol overflow="visible" id="glyph0-0">
<path style="stroke:none;" d="M 0.453125 1.59375 L 0.453125 -6.34375 L 4.953125 -6.34375 L 4.953125 1.59375 Z M 0.953125 1.09375 L 4.453125 1.09375 L 4.453125 -5.84375 L 0.953125 -5.84375 Z M 0.953125 1.09375 "/>
</symbol>
<symbol overflow="visible" id="glyph0-1">
<path style="stroke:none;" d="M 0.890625 -6.5625 L 4.65625 -6.5625 L 4.65625 -5.8125 L 1.765625 -5.8125 L 1.765625 -3.875 L 4.375 -3.875 L 4.375 -3.140625 L 1.765625 -3.140625 L 1.765625 0 L 0.890625 0 Z M 0.890625 -6.5625 "/>
</symbol>
<symbol overflow="visible" id="glyph0-2">
<path style="stroke:none;" d="M 0.890625 -6.5625 L 2.078125 -6.5625 L 4.984375 -1.078125 L 4.984375 -6.5625 L 5.84375 -6.5625 L 5.84375 0 L 4.65625 0 L 1.75 -5.484375 L 1.75 0 L 0.890625 0 Z M 0.890625 -6.5625 "/>
</symbol>
<symbol overflow="visible" id="glyph0-3">
<path style="stroke:none;" d="M 0.890625 -6.5625 L 1.765625 -6.5625 L 1.765625 -3.875 L 5 -3.875 L 5 -6.5625 L 5.890625 -6.5625 L 5.890625 0 L 5 0 L 5 -3.125 L 1.765625 -3.125 L 1.765625 0 L 0.890625 0 Z M 0.890625 -6.5625 "/>
</symbol>
<symbol overflow="visible" id="glyph0-4">
<path style="stroke:none;" d="M 3.546875 -5.953125 C 2.898438 -5.953125 2.382812 -5.710938 2 -5.234375 C 1.625 -4.753906 1.4375 -4.101562 1.4375 -3.28125 C 1.4375 -2.445312 1.625 -1.789062 2 -1.3125 C 2.382812 -0.832031 2.898438 -0.59375 3.546875 -0.59375 C 4.191406 -0.59375 4.703125 -0.832031 5.078125 -1.3125 C 5.453125 -1.789062 5.640625 -2.445312 5.640625 -3.28125 C 5.640625 -4.101562 5.453125 -4.753906 5.078125 -5.234375 C 4.703125 -5.710938 4.191406 -5.953125 3.546875 -5.953125 Z M 3.546875 -6.6875 C 4.460938 -6.6875 5.195312 -6.375 5.75 -5.75 C 6.300781 -5.132812 6.578125 -4.3125 6.578125 -3.28125 C 6.578125 -2.238281 6.300781 -1.410156 5.75 -0.796875 C 5.195312 -0.179688 4.460938 0.125 3.546875 0.125 C 2.617188 0.125 1.878906 -0.179688 1.328125 -0.796875 C 0.773438 -1.410156 0.5 -2.238281 0.5 -3.28125 C 0.5 -4.3125 0.773438 -5.132812 1.328125 -5.75 C 1.878906 -6.375 2.617188 -6.6875 3.546875 -6.6875 Z M 3.546875 -6.6875 "/>
</symbol>
</g>
</defs>
<g id="surface16585">
<rect x="0" y="0" width="300" height="300" style="fill:rgb(100%,100%,100%);fill-opacity:1;stroke:none;"/>
<path style="fill:none;stroke-width:1.2;stroke-linecap:butt;stroke-linejoin:miter;stroke:rgb(20%,80%,80%);stroke-opacity:1;stroke-miterlimit:10;" d="M 63.367188 194.355469 L 61.714844 182.902344 "/>
<path style="fill:none;stroke-width:1.2;stroke-linecap:butt;stroke-linejoin:miter;stroke:rgb(0%,0%,0%);stroke-opacity:1;stroke-miterlimit:10;" d="M 61.714844 182.902344 L 60.058594 171.449219 "/>
<path style=" stroke:none;fill-rule:nonzero;fill:rgb(100%,100%,100%);fill-opacity:1;" d="M 60.367188 188.855469 L 66.367188 188.855469 L 66.367188 199.855469 L 60.367188 199.855469 Z M 60.367188 188.855469 "/>
<g style="fill:rgb(20%,80%,80%);fill-opacity:1;">
  <use xlink:href="#glyph0-1" x="60.367188" y="197.518555"/>
</g>
<path style="fill:none;stroke-width:1.2;stroke-linecap:butt;stroke-linejoin:miter;stroke:rgb(0%,0%,0%);stroke-opacity:1;stroke-miterlimit:10;" d="M 60.058594 171.449219 L 38.5625 162.863281 "/>
<path style="fill:none;stroke-width:1.2;stroke-linecap:butt;stroke-linejoin:miter;stroke:rgb(0%,0%,0%);stroke-opacity:1;stroke-miterlimit:10;" d="M 59.925781 165.53125 L 42.730469 158.664062 "/>
<path style="fill:none;stroke-width:1.2;stroke-linecap:butt;stroke-linejoin:miter;stroke:rgb(0%,0%,0%);stroke-opacity:1;stroke-miterlimit:10;" d="M 78.238281 157.125 L 60.058594 171.449219 "/>
<path style="fill:none;stroke-width:1.2;stroke-linecap:butt;stroke-linejoin:miter;stroke:rgb(0%,0%,0%);stroke-opacity:1;stroke-miterlimit:10;" d="M 38.5625 162.863281 L 35.25 139.953125 "/>
<path style="fill:none;stroke-width:1.2;stroke-linecap:butt;stroke-linejoin:miter;stroke:rgb(0%,0%,0%);stroke-opacity:1;stroke-miterlimit:10;" d="M 35.25 139.953125 L 53.433594 125.632812 "/>
<path style="fill:none;stroke-width:1.2;stroke-linecap:butt;stroke-linejoin:miter;stroke:rgb(0%,0%,0%);stroke-opacity:1;stroke-miterlimit:10;" d="M 40.4375 142.800781 L 54.984375 131.34375 "/>
<path style="fill:none;stroke-width:1.2;stroke-linecap:butt;stroke-linejoin:miter;stroke:rgb(0%,0%,0%);stroke-opacity:1;stroke-miterlimit:10;" d="M 53.433594 125.632812 L 74.929688 134.21875 "/>
<path style="fill:none;stroke-width:1.2;stroke-linecap:butt;stroke-linejoin:miter;stroke:rgb(0%,0%,0%);stroke-opacity:1;stroke-miterlimit:10;" d="M 74.929688 134.21875 L 78.238281 157.125 "/>
<path style="fill:none;stroke-width:1.2;stroke-linecap:butt;stroke-linejoin:miter;stroke:rgb(0%,0%,0%);stroke-opacity:1;stroke-miterlimit:10;" d="M 69.867188 137.289062 L 72.519531 155.613281 "/>
<path style="fill:none;stroke-width:1.2;stroke-linecap:butt;stroke-linejoin:miter;stroke:rgb(0%,0%,0%);stroke-opacity:1;stroke-miterlimit:10;" d="M 78.238281 157.125 L 88.988281 161.417969 "/>
<path style="fill:none;stroke-width:1.2;stroke-linecap:butt;stroke-linejoin:miter;stroke:rgb(0%,0%,100%);stroke-opacity:1;stroke-miterlimit:10;" d="M 88.988281 161.417969 L 99.734375 165.710938 "/>
<path style="fill:none;stroke-width:1.2;stroke-linecap:butt;stroke-linejoin:miter;stroke:rgb(0%,0%,100%);stroke-opacity:1;stroke-miterlimit:10;" d="M 99.734375 165.710938 L 108.824219 158.550781 "/>
<path style="fill:none;stroke-width:1.2;stroke-linecap:butt;stroke-linejoin:miter;stroke:rgb(0%,0%,0%);stroke-opacity:1;stroke-miterlimit:10;" d="M 108.824219 158.550781 L 117.917969 151.390625 "/>
<path style=" stroke:none;fill-rule:nonzero;fill:rgb(100%,100%,100%);fill-opacity:1;" d="M 92.734375 160.210938 L 106.734375 160.210938 L 106.734375 171.210938 L 92.734375 171.210938 Z M 92.734375 160.210938 "/>
<g style="fill:rgb(0%,0%,100%);fill-opacity:1;">
  <use xlink:href="#glyph0-2" x="92.734375" y="168.874023"/>
  <use xlink:href="#glyph0-3" x="99.711914" y="168.874023"/>
</g>
<path style="fill:none;stroke-width:1.2;stroke-linecap:butt;stroke-linejoin:miter;stroke:rgb(0%,0%,0%);stroke-opacity:1;stroke-miterlimit:10;" d="M 117.917969 151.390625 L 117.46875 139.824219 "/>
<path style="fill:none;stroke-width:1.2;stroke-linecap:butt;stroke-linejoin:miter;stroke:rgb(0%,0%,100%);stroke-opacity:1;stroke-miterlimit:10;" d="M 117.46875 139.824219 L 117.019531 128.261719 "/>
<path style="fill:none;stroke-width:1.2;stroke-linecap:butt;stroke-linejoin:miter;stroke:rgb(0%,0%,0%);stroke-opacity:1;stroke-miterlimit:10;" d="M 123.269531 148.863281 L 122.910156 139.613281 "/>
<path style="fill:none;stroke-width:1.2;stroke-linecap:butt;stroke-linejoin:miter;stroke:rgb(0%,0%,100%);stroke-opacity:1;stroke-miterlimit:10;" d="M 122.910156 139.613281 L 122.550781 130.363281 "/>
<path style="fill:none;stroke-width:1.2;stroke-linecap:butt;stroke-linejoin:miter;stroke:rgb(0%,0%,100%);stroke-opacity:1;stroke-miterlimit:10;" d="M 140.191406 157.679688 L 129.054688 154.535156 "/>
<path style="fill:none;stroke-width:1.2;stroke-linecap:butt;stroke-linejoin:miter;stroke:rgb(0%,0%,0%);stroke-opacity:1;stroke-miterlimit:10;" d="M 129.054688 154.535156 L 117.917969 151.390625 "/>
<path style="fill:none;stroke-width:1.2;stroke-linecap:butt;stroke-linejoin:miter;stroke:rgb(0%,0%,100%);stroke-opacity:1;stroke-miterlimit:10;" d="M 117.019531 128.261719 L 127.878906 124.257812 "/>
<path style="fill:none;stroke-width:1.2;stroke-linecap:butt;stroke-linejoin:miter;stroke:rgb(0%,0%,0%);stroke-opacity:1;stroke-miterlimit:10;" d="M 127.878906 124.257812 L 138.738281 120.257812 "/>
<path style=" stroke:none;fill-rule:nonzero;fill:rgb(100%,100%,100%);fill-opacity:1;" d="M 114.019531 122.761719 L 121.019531 122.761719 L 121.019531 133.761719 L 114.019531 133.761719 Z M 114.019531 122.761719 "/>
<g style="fill:rgb(0%,0%,100%);fill-opacity:1;">
  <use xlink:href="#glyph0-2" x="114.019531" y="131.424805"/>
</g>
<path style="fill:none;stroke-width:1.2;stroke-linecap:butt;stroke-linejoin:miter;stroke:rgb(0%,0%,0%);stroke-opacity:1;stroke-miterlimit:10;" d="M 138.738281 120.257812 L 153.058594 138.441406 "/>
<path style="fill:none;stroke-width:1.2;stroke-linecap:butt;stroke-linejoin:miter;stroke:rgb(0%,0%,0%);stroke-opacity:1;stroke-miterlimit:10;" d="M 144.449219 118.707031 L 155.90625 133.253906 "/>
<path style="fill:none;stroke-width:1.2;stroke-linecap:butt;stroke-linejoin:miter;stroke:rgb(0%,0%,0%);stroke-opacity:1;stroke-miterlimit:10;" d="M 147.324219 98.761719 L 138.738281 120.257812 "/>
<path style="fill:none;stroke-width:1.2;stroke-linecap:butt;stroke-linejoin:miter;stroke:rgb(0%,0%,0%);stroke-opacity:1;stroke-miterlimit:10;" d="M 153.058594 138.441406 L 164.511719 136.785156 "/>
<path style="fill:none;stroke-width:1.2;stroke-linecap:butt;stroke-linejoin:miter;stroke:rgb(0%,0%,100%);stroke-opacity:1;stroke-miterlimit:10;" d="M 164.511719 136.785156 L 175.96875 135.128906 "/>
<path style="fill:none;stroke-width:1.2;stroke-linecap:butt;stroke-linejoin:miter;stroke:rgb(0%,0%,0%);stroke-opacity:1;stroke-miterlimit:10;" d="M 153.058594 138.441406 L 146.625 148.0625 "/>
<path style="fill:none;stroke-width:1.2;stroke-linecap:butt;stroke-linejoin:miter;stroke:rgb(0%,0%,100%);stroke-opacity:1;stroke-miterlimit:10;" d="M 146.625 148.0625 L 140.191406 157.679688 "/>
<path style="fill:none;stroke-width:1.2;stroke-linecap:butt;stroke-linejoin:miter;stroke:rgb(0%,0%,100%);stroke-opacity:1;stroke-miterlimit:10;" d="M 175.96875 135.128906 L 180.261719 124.382812 "/>
<path style="fill:none;stroke-width:1.2;stroke-linecap:butt;stroke-linejoin:miter;stroke:rgb(0%,0%,0%);stroke-opacity:1;stroke-miterlimit:10;" d="M 180.261719 124.382812 L 184.554688 113.632812 "/>
<path style="fill:none;stroke-width:1.2;stroke-linecap:butt;stroke-linejoin:miter;stroke:rgb(0%,0%,100%);stroke-opacity:1;stroke-miterlimit:10;" d="M 171.769531 130.960938 L 175.203125 122.363281 "/>
<path style="fill:none;stroke-width:1.2;stroke-linecap:butt;stroke-linejoin:miter;stroke:rgb(0%,0%,0%);stroke-opacity:1;stroke-miterlimit:10;" d="M 175.203125 122.363281 L 178.636719 113.761719 "/>
<path style=" stroke:none;fill-rule:nonzero;fill:rgb(100%,100%,100%);fill-opacity:1;" d="M 172.96875 129.628906 L 179.96875 129.628906 L 179.96875 140.628906 L 172.96875 140.628906 Z M 172.96875 129.628906 "/>
<g style="fill:rgb(0%,0%,100%);fill-opacity:1;">
  <use xlink:href="#glyph0-2" x="172.96875" y="138.291992"/>
</g>
<path style="fill:none;stroke-width:1.2;stroke-linecap:butt;stroke-linejoin:miter;stroke:rgb(0%,0%,0%);stroke-opacity:1;stroke-miterlimit:10;" d="M 184.554688 113.632812 L 177.390625 104.542969 "/>
<path style="fill:none;stroke-width:1.2;stroke-linecap:butt;stroke-linejoin:miter;stroke:rgb(0%,0%,100%);stroke-opacity:1;stroke-miterlimit:10;" d="M 177.390625 104.542969 L 170.230469 95.453125 "/>
<path style="fill:none;stroke-width:1.2;stroke-linecap:butt;stroke-linejoin:miter;stroke:rgb(0%,0%,0%);stroke-opacity:1;stroke-miterlimit:10;" d="M 184.554688 113.632812 L 196.007812 111.976562 "/>
<path style="fill:none;stroke-width:1.2;stroke-linecap:butt;stroke-linejoin:miter;stroke:rgb(0%,0%,100%);stroke-opacity:1;stroke-miterlimit:10;" d="M 196.007812 111.976562 L 207.460938 110.320312 "/>
<path style="fill:none;stroke-width:1.2;stroke-linecap:butt;stroke-linejoin:miter;stroke:rgb(0%,0%,100%);stroke-opacity:1;stroke-miterlimit:10;" d="M 170.230469 95.453125 L 158.777344 97.105469 "/>
<path style="fill:none;stroke-width:1.2;stroke-linecap:butt;stroke-linejoin:miter;stroke:rgb(0%,0%,0%);stroke-opacity:1;stroke-miterlimit:10;" d="M 158.777344 97.105469 L 147.324219 98.761719 "/>
<path style="fill:none;stroke-width:1.2;stroke-linecap:butt;stroke-linejoin:miter;stroke:rgb(0%,0%,100%);stroke-opacity:1;stroke-miterlimit:10;" d="M 168.71875 101.171875 L 159.554688 102.496094 "/>
<path style="fill:none;stroke-width:1.2;stroke-linecap:butt;stroke-linejoin:miter;stroke:rgb(0%,0%,0%);stroke-opacity:1;stroke-miterlimit:10;" d="M 159.554688 102.496094 L 150.394531 103.824219 "/>
<path style=" stroke:none;fill-rule:nonzero;fill:rgb(100%,100%,100%);fill-opacity:1;" d="M 167.230469 89.953125 L 174.230469 89.953125 L 174.230469 100.953125 L 167.230469 100.953125 Z M 167.230469 89.953125 "/>
<g style="fill:rgb(0%,0%,100%);fill-opacity:1;">
  <use xlink:href="#glyph0-2" x="167.230469" y="98.616211"/>
</g>
<path style="fill:none;stroke-width:1.2;stroke-linecap:butt;stroke-linejoin:miter;stroke:rgb(0%,0%,100%);stroke-opacity:1;stroke-miterlimit:10;" d="M 207.460938 110.320312 L 214.621094 119.414062 "/>
<path style="fill:none;stroke-width:1.2;stroke-linecap:butt;stroke-linejoin:miter;stroke:rgb(0%,0%,0%);stroke-opacity:1;stroke-miterlimit:10;" d="M 214.621094 119.414062 L 221.78125 128.503906 "/>
<path style=" stroke:none;fill-rule:nonzero;fill:rgb(100%,100%,100%);fill-opacity:1;" d="M 200.460938 104.820312 L 214.460938 104.820312 L 214.460938 115.820312 L 200.460938 115.820312 Z M 200.460938 104.820312 "/>
<g style="fill:rgb(0%,0%,100%);fill-opacity:1;">
  <use xlink:href="#glyph0-2" x="200.460938" y="113.483398"/>
  <use xlink:href="#glyph0-3" x="207.438477" y="113.483398"/>
</g>
<path style="fill:none;stroke-width:1.2;stroke-linecap:butt;stroke-linejoin:miter;stroke:rgb(0%,0%,0%);stroke-opacity:1;stroke-miterlimit:10;" d="M 221.78125 128.503906 L 213.199219 150 "/>
<path style="fill:none;stroke-width:1.2;stroke-linecap:butt;stroke-linejoin:miter;stroke:rgb(0%,0%,0%);stroke-opacity:1;stroke-miterlimit:10;" d="M 225.980469 132.675781 L 219.113281 149.871094 "/>
<path style="fill:none;stroke-width:1.2;stroke-linecap:butt;stroke-linejoin:miter;stroke:rgb(0%,0%,0%);stroke-opacity:1;stroke-miterlimit:10;" d="M 244.691406 125.191406 L 221.78125 128.503906 "/>
<path style="fill:none;stroke-width:1.2;stroke-linecap:butt;stroke-linejoin:miter;stroke:rgb(0%,0%,0%);stroke-opacity:1;stroke-miterlimit:10;" d="M 213.199219 150 L 227.519531 168.183594 "/>
<path style="fill:none;stroke-width:1.2;stroke-linecap:butt;stroke-linejoin:miter;stroke:rgb(0%,0%,0%);stroke-opacity:1;stroke-miterlimit:10;" d="M 227.519531 168.183594 L 250.425781 164.871094 "/>
<path style="fill:none;stroke-width:1.2;stroke-linecap:butt;stroke-linejoin:miter;stroke:rgb(0%,0%,0%);stroke-opacity:1;stroke-miterlimit:10;" d="M 229.03125 162.460938 L 247.359375 159.8125 "/>
<path style="fill:none;stroke-width:1.2;stroke-linecap:butt;stroke-linejoin:miter;stroke:rgb(0%,0%,0%);stroke-opacity:1;stroke-miterlimit:10;" d="M 250.425781 164.871094 L 257.589844 173.960938 "/>
<path style="fill:none;stroke-width:1.2;stroke-linecap:butt;stroke-linejoin:miter;stroke:rgb(100%,0%,0%);stroke-opacity:1;stroke-miterlimit:10;" d="M 257.589844 173.960938 L 264.75 183.054688 "/>
<path style="fill:none;stroke-width:1.2;stroke-linecap:butt;stroke-linejoin:miter;stroke:rgb(0%,0%,0%);stroke-opacity:1;stroke-miterlimit:10;" d="M 250.425781 164.871094 L 259.011719 143.375 "/>
<path style="fill:none;stroke-width:1.2;stroke-linecap:butt;stroke-linejoin:miter;stroke:rgb(100%,0%,0%);stroke-opacity:1;stroke-miterlimit:10;" d="M 264.75 183.054688 L 260.457031 193.800781 "/>
<path style="fill:none;stroke-width:1.2;stroke-linecap:butt;stroke-linejoin:miter;stroke:rgb(0%,0%,0%);stroke-opacity:1;stroke-miterlimit:10;" d="M 260.457031 193.800781 L 256.164062 204.546875 "/>
<path style=" stroke:none;fill-rule:nonzero;fill:rgb(100%,100%,100%);fill-opacity:1;" d="M 260.75 177.554688 L 268.75 177.554688 L 268.75 188.554688 L 260.75 188.554688 Z M 260.75 177.554688 "/>
<g style="fill:rgb(100%,0%,0%);fill-opacity:1;">
  <use xlink:href="#glyph0-4" x="260.75" y="186.217773"/>
</g>
<path style="fill:none;stroke-width:1.2;stroke-linecap:butt;stroke-linejoin:miter;stroke:rgb(0%,0%,0%);stroke-opacity:1;stroke-miterlimit:10;" d="M 259.011719 143.375 L 244.691406 125.191406 "/>
<path style="fill:none;stroke-width:1.2;stroke-linecap:butt;stroke-linejoin:miter;stroke:rgb(0%,0%,0%);stroke-opacity:1;stroke-miterlimit:10;" d="M 253.304688 144.925781 L 241.84375 130.382812 "/>
<path style="fill:none;stroke-width:1.2;stroke-linecap:butt;stroke-linejoin:miter;stroke:rgb(0%,0%,100%);stroke-opacity:1;stroke-miterlimit:10;" d="M 140.191406 157.679688 L 144.195312 168.539062 "/>
<path style="fill:none;stroke-width:1.2;stroke-linecap:butt;stroke-linejoin:miter;stroke:rgb(0%,0%,0%);stroke-opacity:1;stroke-miterlimit:10;" d="M 144.195312 168.539062 L 148.195312 179.398438 "/>
<path style=" stroke:none;fill-rule:nonzero;fill:rgb(100%,100%,100%);fill-opacity:1;" d="M 137.191406 152.179688 L 144.191406 152.179688 L 144.191406 163.179688 L 137.191406 163.179688 Z M 137.191406 152.179688 "/>
<g style="fill:rgb(0%,0%,100%);fill-opacity:1;">
  <use xlink:href="#glyph0-2" x="137.191406" y="160.842773"/>
</g>
<path style="fill:none;stroke-width:1.2;stroke-linecap:butt;stroke-linejoin:miter;stroke:rgb(0%,0%,0%);stroke-opacity:1;stroke-miterlimit:10;" d="M 148.195312 179.398438 L 133.386719 197.191406 "/>
<path style="fill:none;stroke-width:1.2;stroke-linecap:butt;stroke-linejoin:miter;stroke:rgb(0%,0%,0%);stroke-opacity:1;stroke-miterlimit:10;" d="M 148.195312 179.398438 L 171.003906 183.328125 "/>
</g>
</svg>

<svg xmlns="http://www.w3.org/2000/svg" xmlns:xlink="http://www.w3.org/1999/xlink" width="300pt" height="300pt" viewBox="0 0 300 300"><defs><symbol overflow="visible"><path d="M.453 1.594v-7.938h4.5v7.938zm.5-.5h3.5v-6.938h-3.5zm0 0"/></symbol><symbol overflow="visible" id="a"><path d="M.89-6.563h3.766v.75h-2.89v1.938h2.61v.734h-2.61V0H.89zm0 0"/></symbol><symbol overflow="visible" id="b"><path d="M.89-6.563H2.08l2.906 5.485v-5.484h.86V0H4.656L1.75-5.484V0H.89zm0 0"/></symbol><symbol overflow="visible" id="c"><path d="M.89-6.563h.876v2.688H5v-2.688h.89V0H5v-3.125H1.766V0H.89zm0 0"/></symbol><symbol overflow="visible" id="d"><path d="M3.547-5.953c-.65 0-1.164.242-1.547.72-.375.48-.563 1.13-.563 1.952 0 .835.188 1.49.563 1.967.383.48.898.72 1.547.72.644 0 1.156-.24 1.53-.72.376-.476.564-1.132.564-1.968 0-.822-.187-1.474-.562-1.954-.375-.477-.887-.72-1.53-.72zm0-.734c.914 0 1.648.312 2.203.937.55.617.828 1.438.828 2.47 0 1.042-.277 1.87-.828 2.483-.555.617-1.29.922-2.203.922-.93 0-1.668-.305-2.22-.922C.774-1.41.5-2.237.5-3.28c0-1.033.273-1.853.828-2.47.55-.625 1.29-.938 2.22-.938zm0 0"/></symbol></defs><g><path fill="#fff" d="M0 0h300v300H0z"/><path d="M63.367 194.355l-1.652-11.453" stroke-width="1.2" stroke="#3cc" stroke-miterlimit="10" fill="none"/><path d="M61.715 182.902L60.06 171.45" stroke-width="1.2" stroke="#000" stroke-miterlimit="10" fill="none"/><path d="M60.367 188.855h6v11h-6zm0 0" fill="#fff"/><use xlink:href="#a" x="60.367" y="197.519" fill="#3cc"/><path d="M60.06 171.45l-21.498-8.587M59.926 165.53l-17.196-6.866M78.238 157.125l-18.18 14.324M38.563 162.863l-3.313-22.91M35.25 139.953l18.184-14.32M40.438 142.8l14.546-11.456M53.434 125.633l21.496 8.586M74.93 134.22l3.308 22.905M69.867 137.29l2.653 18.323M78.238 157.125l10.75 4.293" stroke-width="1.2" stroke="#000" stroke-miterlimit="10" fill="none"/><path d="M88.988 161.418l10.746 4.293M99.734 165.71l9.09-7.16" stroke-width="1.2" stroke="#00f" stroke-miterlimit="10" fill="none"/><path d="M108.824 158.55l9.094-7.16" stroke-width="1.2" stroke="#000" stroke-miterlimit="10" fill="none"/><path d="M92.734 160.21h14v11h-14zm0 0" fill="#fff"/><g fill="#00f"><use xlink:href="#b" x="92.734" y="168.874"/><use xlink:href="#c" x="99.712" y="168.874"/></g><path d="M117.918 151.39l-.45-11.566" stroke-width="1.2" stroke="#000" stroke-miterlimit="10" fill="none"/><path d="M117.47 139.824l-.45-11.562" stroke-width="1.2" stroke="#00f" stroke-miterlimit="10" fill="none"/><path d="M123.27 148.863l-.36-9.25" stroke-width="1.2" stroke="#000" stroke-miterlimit="10" fill="none"/><path d="M122.91 139.613l-.36-9.25M140.19 157.68l-11.135-3.145" stroke-width="1.2" stroke="#00f" stroke-miterlimit="10" fill="none"/><path d="M129.055 154.535l-11.137-3.144" stroke-width="1.2" stroke="#000" stroke-miterlimit="10" fill="none"/><path d="M117.02 128.262l10.86-4.004" stroke-width="1.2" stroke="#00f" stroke-miterlimit="10" fill="none"/><path d="M127.88 124.258l10.858-4" stroke-width="1.2" stroke="#000" stroke-miterlimit="10" fill="none"/><path d="M114.02 122.762h7v11h-7zm0 0" fill="#fff"/><use xlink:href="#b" x="114.02" y="131.425" fill="#00f"/><path d="M138.738 120.258l14.32 18.183M144.45 118.707l11.456 14.547M147.324 98.762l-8.586 21.496M153.06 138.44l11.452-1.655" stroke-width="1.2" stroke="#000" stroke-miterlimit="10" fill="none"/><path d="M164.512 136.785l11.457-1.656" stroke-width="1.2" stroke="#00f" stroke-miterlimit="10" fill="none"/><path d="M153.06 138.44l-6.435 9.623" stroke-width="1.2" stroke="#000" stroke-miterlimit="10" fill="none"/><path d="M146.625 148.063l-6.434 9.617M175.97 135.13l4.292-10.747" stroke-width="1.2" stroke="#00f" stroke-miterlimit="10" fill="none"/><path d="M180.262 124.383l4.293-10.75" stroke-width="1.2" stroke="#000" stroke-miterlimit="10" fill="none"/><path d="M171.77 130.96l3.433-8.597" stroke-width="1.2" stroke="#00f" stroke-miterlimit="10" fill="none"/><path d="M175.203 122.363l3.434-8.6" stroke-width="1.2" stroke="#000" stroke-miterlimit="10" fill="none"/><path d="M172.97 129.63h7v11h-7zm0 0" fill="#fff"/><use xlink:href="#b" x="172.969" y="138.292" fill="#00f"/><path d="M184.555 113.633l-7.164-9.09" stroke-width="1.2" stroke="#000" stroke-miterlimit="10" fill="none"/><path d="M177.39 104.543l-7.16-9.09" stroke-width="1.2" stroke="#00f" stroke-miterlimit="10" fill="none"/><path d="M184.555 113.633l11.453-1.656" stroke-width="1.2" stroke="#000" stroke-miterlimit="10" fill="none"/><path d="M196.008 111.977l11.453-1.657M170.23 95.453l-11.453 1.652" stroke-width="1.2" stroke="#00f" stroke-miterlimit="10" fill="none"/><path d="M158.777 97.105l-11.453 1.657" stroke-width="1.2" stroke="#000" stroke-miterlimit="10" fill="none"/><path d="M168.72 101.172l-9.165 1.324" stroke-width="1.2" stroke="#00f" stroke-miterlimit="10" fill="none"/><path d="M159.555 102.496l-9.16 1.328" stroke-width="1.2" stroke="#000" stroke-miterlimit="10" fill="none"/><path d="M167.23 89.953h7v11h-7zm0 0" fill="#fff"/><use xlink:href="#b" x="167.23" y="98.616" fill="#00f"/><path d="M207.46 110.32l7.16 9.094" stroke-width="1.2" stroke="#00f" stroke-miterlimit="10" fill="none"/><path d="M214.62 119.414l7.16 9.09" stroke-width="1.2" stroke="#000" stroke-miterlimit="10" fill="none"/><path d="M200.46 104.82h14v11h-14zm0 0" fill="#fff"/><g fill="#00f"><use xlink:href="#b" x="200.461" y="113.483"/><use xlink:href="#c" x="207.438" y="113.483"/></g><path d="M221.78 128.504L213.2 150M225.98 132.676l-6.867 17.195M244.69 125.19l-22.91 3.314M213.2 150l14.32 18.184M227.52 168.184l22.906-3.313M229.03 162.46l18.33-2.648M250.426 164.87l7.164 9.09" stroke-width="1.2" stroke="#000" stroke-miterlimit="10" fill="none"/><path d="M257.59 173.96l7.16 9.095" stroke-width="1.2" stroke="#f00" stroke-miterlimit="10" fill="none"/><path d="M250.426 164.87l8.586-21.495" stroke-width="1.2" stroke="#000" stroke-miterlimit="10" fill="none"/><path d="M264.75 183.055l-4.293 10.746" stroke-width="1.2" stroke="#f00" stroke-miterlimit="10" fill="none"/><path d="M260.457 193.8l-4.293 10.747" stroke-width="1.2" stroke="#000" stroke-miterlimit="10" fill="none"/><path d="M260.75 177.555h8v11h-8zm0 0" fill="#fff"/><use xlink:href="#d" x="260.75" y="186.218" fill="#f00"/><path d="M259.012 143.375l-14.32-18.184M253.305 144.926l-11.46-14.543" stroke-width="1.2" stroke="#000" stroke-miterlimit="10" fill="none"/><path d="M140.19 157.68l4.005 10.86" stroke-width="1.2" stroke="#00f" stroke-miterlimit="10" fill="none"/><path d="M144.195 168.54l4 10.858" stroke-width="1.2" stroke="#000" stroke-miterlimit="10" fill="none"/><path d="M137.19 152.18h7v11h-7zm0 0" fill="#fff"/><use xlink:href="#b" x="137.191" y="160.843" fill="#00f"/><path d="M148.195 179.398l-14.808 17.793M148.195 179.398l22.81 3.93" stroke-width="1.2" stroke="#000" stroke-miterlimit="10" fill="none"/></g></svg>
